X: 005
T: Garland of Roses
B: 204 Favourite Country Dances
N: Published by Straight & Skillern, London ca.1775
F: http://imslp.org/wiki/204_Favourite_Country_Dances_(Various) p.3 #5
Z: 2014 John Chambers <jc:trillian.mit.edu>
M: 6/8
L: 1/8
K: G
%  - - - - - - - - - - - - - - - - - - - - - - - - -
g |\
gfe d2c | BcA G2D | G2D G2A | BdB A2g |\
gfe d2c | BcA G2D | Eec AcA | FDF G2 :|
|: a |\
abg f2e | dec d2A | d2A d2e | fag fed |\
gfe d2c | BcA G2D | Eec AcA | FDF G2 :|
%  - - - - - - - - - - - - - - - - - - - - - - - - -
%%begintext align
%% The 1st & 2d Cu. foot it & turn Partners then
%% foot it sides & turn gallop down & up and
%% cast off 1 Cu. right & left at top
%%endtext

%%sep 1 1 500
%%sep 1 1 500
